X:1245
T:Captain Clapperton
A:Wyresdale, Lancashire
B:E and J Winder, 1835-41
L:1/8
M:2/4
O:England
Z:Richard Robinson 
%%TUNEURL: http://www.leeds.ac.uk/music/Info/RRTuneBk/gettune/00001183.html
%%ID:00001183
K:C
G | cG/G/ dG/G/ | dBGB | cedg | ecc \
G | cG/G/ cG/G/ | dBG g/f/ | ecdB | cCC ||
e | dG/G/ dG/G/ | f/e/d/c/ B/A/G/F/ | EG ce | d/c/B/c/ B \
c | dG/G/ dG/G/ | f/e/d/c/ B/A/G/F/ | E/G/c/e/ dB | cCC |]
